; generated by PrusaSlicer 2.3.0+win64 on 2021-04-04 at 17:37:37 UTC

; 

; external perimeters extrusion width = 0.90mm
; perimeters extrusion width = 0.90mm
; infill extrusion width = 0.90mm
; solid infill extrusion width = 0.90mm
; top infill extrusion width = 0.80mm
; support material extrusion width = 0.80mm
; first layer extrusion width = 0.80mm

M201 X9000 Y9000 Z500 E10000 ; sets maximum accelerations, mm/sec^2
M203 X500 Y500 Z12 E120 ; sets maximum feedrates, mm/sec
M204 P1500 R1500 T1500 ; sets acceleration (P, T) and retract acceleration (R), mm/sec^2
M205 X10.00 Y10.00 Z0.20 E2.50 ; sets the jerk limits, mm/sec
M205 S0 T0 ; sets the minimum extruding and travel feed rate, mm/sec
M107
;TYPE:Custom
G90 ; use absolute coordinates
M83 ; extruder relative mode
M104 S260 ; set extruder temp
M140 S60 ; set bed temp
M190 S60 ; wait for bed temp
M109 S260 ; wait for extruder temp
G28 ; home all
G29 ; Auto bed leveling
G1 Z2 F240
G1 X2 Y10 F3000
G1 Z0.28 F240
G92 E0.0
G1 Y190 E15.0 F1500.0 ; intro line
G1 X2.3 F5000
G1 Y10 E30 F1200.0 ; intro line
G92 E0.0
G21 ; set units to millimeters
G90 ; use absolute coordinates
M82 ; use absolute distances for extrusion
G92 E0
; Filament gcode
;LAYER_CHANGE
;Z:0.4
;HEIGHT:0.4
G1 Z0.400 F7800.000
G1 E-0.50000 F1500.000
G92 E0
G1 X15.736 Y13.887 F7800.000
G1 E0.50000 F1500.000
;TYPE:Skirt
;WIDTH:0.8
G1 F1200.000
G1 X16.768 Y12.859 E0.67646
G1 X17.685 Y12.240 E0.81047
G1 X18.697 Y11.779 E0.94525
G1 X19.766 Y11.492 E1.07926
G1 X20.873 Y11.385 E1.21404
G1 X123.424 Y11.384 E13.63706
G1 X124.343 Y11.448 E13.74864
G1 X125.244 Y11.637 E13.86023
G1 X126.111 Y11.948 E13.97181
G1 X126.922 Y12.371 E14.08262
G1 X202.620 Y59.882 E24.90918
G1 X203.465 Y60.514 E25.03701
G1 X204.200 Y61.270 E25.16483
G1 X204.808 Y62.133 E25.29266
G1 X205.274 Y63.080 E25.42048
G1 X205.626 Y64.282 E25.57225
G1 X205.748 Y65.535 E25.72480
G1 X205.746 Y201.623 E42.21057
G1 X205.649 Y202.597 E42.32911
G1 X205.413 Y203.547 E42.44766
G1 X205.043 Y204.446 E42.56543
G1 X204.544 Y205.288 E42.68397
G1 X203.927 Y206.048 E42.80252
G1 X203.207 Y206.710 E42.92106
G1 X202.398 Y207.261 E43.03961
G1 X201.518 Y207.688 E43.15815
G1 X200.329 Y208.039 E43.30838
G1 X199.088 Y208.165 E43.45939
G1 X85.810 Y208.616 E57.18215
G1 X84.681 Y208.526 E57.31924
G1 X83.809 Y208.352 E57.42695
G1 X82.739 Y207.972 E57.56460
G1 X81.931 Y207.570 E57.67386
G1 X81.052 Y206.967 E57.80295
G1 X80.427 Y206.429 E57.90292
G1 X79.873 Y205.817 E58.00290
G1 X79.239 Y204.944 E58.13363
G1 X15.223 Y99.468 E73.08021
G1 X14.727 Y98.472 E73.21499
G1 X14.376 Y97.276 E73.36599
G1 X14.252 Y96.029 E73.51777
G1 X14.254 Y17.938 E82.97777
G1 X14.448 Y16.488 E83.15500
G1 X14.949 Y15.120 E83.33147
G1 X15.672 Y13.989 E83.49416
G1 E82.99416 F1500.000
G92 E0
G1 X80.302 Y58.124 F7800.000
G1 E0.50000 F1500.000
;TYPE:Perimeter
G1 F1200.000
G1 X96.930 Y58.124 E2.51430
G1 X96.930 Y74.752 E4.52860
G1 X80.302 Y74.752 E6.54290
G1 X80.302 Y58.244 E8.54267
G1 X81.092 Y58.838 F7800.000
;TYPE:External perimeter
G1 F1200.000
G1 X96.216 Y58.838 E10.37472
G1 X96.216 Y74.038 E12.21600
G1 X81.016 Y74.038 E14.05727
G1 X81.016 Y58.882 E15.89323
G1 X80.886 Y58.065 F7800.000
G1 E15.39323 F1500.000
G92 E0
G1 X99.352 Y58.882 F7800.000
G1 E0.50000 F1500.000
;TYPE:Perimeter
G1 F1200.000
G1 X99.352 Y58.124 E0.59183
G1 X115.980 Y58.124 E2.60613
G1 X115.980 Y74.752 E4.62044
G1 X99.352 Y74.752 E6.63473
G1 X99.352 Y59.002 E8.54267
G1 E8.04267 F1500.000
G92 E0
G1 X111.400 Y74.038 F7800.000
G1 E0.50000 F1500.000
;TYPE:External perimeter
G1 F1200.000
G1 X100.066 Y74.038 E1.87296
G1 X100.066 Y58.838 E3.71424
G1 X115.266 Y58.838 E5.55551
G1 X115.266 Y74.038 E7.39679
G1 X111.520 Y74.038 E7.85056
G1 X111.334 Y74.835 F7800.000
G1 E7.35056 F1500.000
G92 E0
G1 X111.520 Y77.174 F7800.000
G1 E0.50000 F1500.000
;TYPE:Perimeter
G1 F1200.000
G1 X115.980 Y77.174 E1.04029
G1 X115.980 Y93.802 E3.05460
G1 X99.352 Y93.802 E5.06890
G1 X99.352 Y77.174 E7.08321
G1 X111.400 Y77.174 E8.54268
G1 X111.819 Y77.888 F7800.000
;TYPE:External perimeter
G1 F1200.000
G1 X115.266 Y77.888 E8.96024
G1 X115.266 Y93.088 E10.80153
G1 X100.066 Y93.088 E12.64280
G1 X100.066 Y77.888 E14.48408
G1 X111.699 Y77.888 E15.89325
G1 X111.993 Y77.108 F7800.000
G1 E15.39325 F1500.000
G92 E0
G1 X96.930 Y77.888 F7800.000
G1 E0.50000 F1500.000
;TYPE:Perimeter
G1 F1200.000
G1 X96.930 Y93.802 E2.42780
G1 X80.302 Y93.802 E4.44210
G1 X80.302 Y77.174 E6.45641
G1 X96.930 Y77.174 E8.47071
G1 X96.930 Y77.768 E8.54268
G1 E8.04268 F1500.000
G92 E0
G1 X81.016 Y89.517 F7800.000
G1 E0.50000 F1500.000
;TYPE:External perimeter
G1 F1200.000
G1 X81.016 Y77.888 E1.90865
G1 X96.216 Y77.888 E3.74992
G1 X96.216 Y93.088 E5.59120
G1 X81.016 Y93.088 E7.43247
G1 X81.016 Y89.637 E7.85057
G1 X80.219 Y89.455 F7800.000
G1 E7.35057 F1500.000
G92 E0
G1 X77.880 Y89.637 F7800.000
G1 E0.50000 F1500.000
;TYPE:Perimeter
G1 F1200.000
G1 X77.880 Y93.802 E1.00457
G1 X61.252 Y93.802 E3.01887
G1 X61.252 Y77.172 E5.03335
G1 X77.880 Y77.172 E7.04765
G1 X77.880 Y89.517 E8.54302
G1 E8.04302 F1500.000
G92 E0
G1 X71.997 Y93.088 F7800.000
G1 E0.50000 F1500.000
;TYPE:External perimeter
G1 F1200.000
G1 X61.966 Y93.088 E1.71514
G1 X61.966 Y77.887 E3.55659
G1 X77.166 Y77.887 E5.39786
G1 X77.166 Y93.088 E7.23932
G1 X72.117 Y93.088 E7.85091
G1 X71.910 Y93.883 F7800.000
G1 E7.35091 F1500.000
G92 E0
G1 X72.117 Y74.752 F7800.000
G1 E0.50000 F1500.000
;TYPE:Perimeter
G1 F1200.000
G1 X61.252 Y74.752 E1.81619
G1 X61.252 Y58.123 E3.83064
G1 X77.880 Y58.123 E5.84493
G1 X77.880 Y74.752 E7.85938
G1 X72.237 Y74.752 E8.54295
G1 E8.04295 F1500.000
G92 E0
G1 X77.166 Y72.814 F7800.000
G1 E0.50000 F1500.000
;TYPE:External perimeter
G1 F1200.000
G1 X77.166 Y74.038 E0.64824
G1 X61.966 Y74.038 E2.48951
G1 X61.966 Y58.837 E4.33093
G1 X77.166 Y58.837 E6.17220
G1 X77.166 Y72.694 E7.85084
G1 X77.941 Y73.010 F7800.000
G1 E7.35084 F1500.000
G92 E0
G1 X77.166 Y55.702 F7800.000
G1 E0.50000 F1500.000
;TYPE:Perimeter
G1 F1200.000
G1 X61.252 Y55.702 E2.42778
G1 X61.252 Y39.074 E4.44209
G1 X77.880 Y39.074 E6.45638
G1 X77.880 Y55.702 E8.47069
G1 X77.286 Y55.702 E8.54266
G1 E8.04266 F1500.000
G92 E0
G1 X77.166 Y45.886 F7800.000
G1 E0.50000 F1500.000
;TYPE:External perimeter
G1 F1200.000
G1 X77.166 Y54.988 E1.60262
G1 X61.966 Y54.988 E3.44388
G1 X61.966 Y39.788 E5.28516
G1 X77.166 Y39.788 E7.12643
G1 X77.166 Y45.766 E7.85055
G1 X77.959 Y45.987 F7800.000
G1 E7.35055 F1500.000
G92 E0
G1 X80.302 Y45.766 F7800.000
G1 E0.50000 F1500.000
;TYPE:Perimeter
G1 F1200.000
G1 X80.302 Y39.074 E1.31064
G1 X96.930 Y39.074 E3.32494
G1 X96.930 Y55.702 E5.33925
G1 X80.302 Y55.702 E7.35355
G1 X80.302 Y45.886 E8.54268
G1 X81.016 Y46.114 F7800.000
;TYPE:External perimeter
G1 F1200.000
G1 X81.016 Y39.788 E9.30893
G1 X96.216 Y39.788 E11.15020
G1 X96.216 Y54.988 E12.99149
G1 X81.016 Y54.988 E14.83276
G1 X81.016 Y46.234 E15.89326
G1 X80.229 Y45.973 F7800.000
G1 E15.39326 F1500.000
G92 E0
G1 X99.352 Y46.234 F7800.000
G1 E0.50000 F1500.000
;TYPE:Perimeter
G1 F1200.000
G1 X99.352 Y39.074 E1.36730
G1 X115.980 Y39.074 E3.38160
G1 X115.980 Y55.702 E5.39591
G1 X99.352 Y55.702 E7.41020
G1 X99.352 Y46.354 E8.54268
G1 E8.04268 F1500.000
G92 E0
G1 X100.066 Y50.559 F7800.000
G1 E0.50000 F1500.000
;TYPE:External perimeter
G1 F1200.000
G1 X100.066 Y39.788 E1.80480
G1 X115.266 Y39.788 E3.64607
G1 X115.266 Y54.988 E5.48736
G1 X100.066 Y54.988 E7.32863
G1 X100.066 Y50.679 E7.85057
G1 X99.270 Y50.484 F7800.000
G1 E7.35057 F1500.000
G92 E0
G1 X100.066 Y36.652 F7800.000
G1 E0.50000 F1500.000
;TYPE:Perimeter
G1 F1200.000
G1 X99.352 Y36.652 E0.58651
G1 X99.352 Y20.024 E2.60082
G1 X115.980 Y20.024 E4.61512
G1 X115.980 Y36.652 E6.62942
G1 X100.186 Y36.652 E8.54267
G1 X100.273 Y35.938 F7800.000
;TYPE:External perimeter
G1 F1200.000
G1 X100.066 Y35.938 E8.56767
G1 X100.066 Y20.738 E10.40895
G1 X115.266 Y20.738 E12.25022
G1 X115.266 Y35.938 E14.09150
G1 X100.393 Y35.938 E15.89323
G1 X100.220 Y36.137 F7800.000
G1 E15.39323 F1500.000
G92 E0
G1 X96.930 Y35.938 F7800.000
G1 E0.50000 F1500.000
;TYPE:Perimeter
G1 F1200.000
G1 X96.930 Y36.652 E0.58651
G1 X80.302 Y36.652 E2.60081
G1 X80.302 Y20.024 E4.61512
G1 X96.930 Y20.024 E6.62941
G1 X96.930 Y35.818 E8.54267
G1 E8.04267 F1500.000
G92 E0
G1 X91.602 Y20.738 F7800.000
G1 E0.50000 F1500.000
;TYPE:External perimeter
G1 F1200.000
G1 X96.216 Y20.738 E1.05895
G1 X96.216 Y35.938 E2.90023
G1 X81.016 Y35.938 E4.74150
G1 X81.016 Y20.738 E6.58278
G1 X91.482 Y20.738 E7.85056
G1 X91.763 Y19.955 F7800.000
G1 E7.35056 F1500.000
G92 E0
G1 X77.880 Y20.738 F7800.000
G1 E0.50000 F1500.000
;TYPE:Perimeter
G1 F1200.000
G1 X77.880 Y36.652 E2.42779
G1 X61.252 Y36.652 E4.44208
G1 X61.252 Y20.024 E6.45639
G1 X77.880 Y20.024 E8.47068
G1 X77.880 Y20.618 E8.54266
G1 E8.04266 F1500.000
G92 E0
G1 X61.966 Y29.314 F7800.000
G1 E0.50000 F1500.000
;TYPE:External perimeter
G1 F1200.000
G1 X61.966 Y20.738 E1.53889
G1 X77.166 Y20.738 E3.38016
G1 X77.166 Y35.938 E5.22144
G1 X61.966 Y35.938 E7.06270
G1 X61.966 Y29.434 E7.85055
G1 X61.174 Y29.205 F7800.000
G1 E7.35055 F1500.000
G92 E0
G1 X58.830 Y77.172 F7800.000
G1 E0.50000 F1500.000
;TYPE:Perimeter
G1 F1200.000
G1 X58.830 Y93.802 E2.51448
G1 X42.202 Y93.802 E4.52876
G1 X42.202 Y77.172 E6.54324
G1 X58.710 Y77.172 E8.54298
G1 E8.04298 F1500.000
G92 E0
G1 X45.317 Y93.088 F7800.000
G1 E0.50000 F1500.000
;TYPE:External perimeter
G1 F1200.000
G1 X42.916 Y93.088 E0.79082
G1 X42.916 Y77.887 E2.63228
G1 X58.116 Y77.887 E4.47353
G1 X58.116 Y93.088 E6.31498
G1 X45.437 Y93.088 E7.85087
G1 X45.132 Y93.866 F7800.000
G1 E7.35087 F1500.000
G92 E0
G1 X45.437 Y74.752 F7800.000
G1 E0.50000 F1500.000
;TYPE:Perimeter
G1 F1200.000
G1 X42.202 Y74.752 E0.89187
G1 X42.202 Y58.123 E2.90635
G1 X58.830 Y58.123 E4.92063
G1 X58.830 Y74.752 E6.93511
G1 X45.557 Y74.752 E8.54298
G1 E8.04298 F1500.000
G92 E0
G1 X57.293 Y74.038 F7800.000
G1 E0.50000 F1500.000
;TYPE:External perimeter
G1 F1200.000
G1 X42.916 Y74.038 E2.24156
G1 X42.916 Y58.837 E4.08302
G1 X58.116 Y58.837 E5.92427
G1 X58.116 Y74.038 E7.76572
G1 X57.413 Y74.038 E7.85087
G1 X57.278 Y74.838 F7800.000
G1 E7.35087 F1500.000
G92 E0
G1 X57.413 Y55.702 F7800.000
G1 E0.50000 F1500.000
;TYPE:Perimeter
G1 F1200.000
G1 X42.202 Y55.702 E2.34261
G1 X42.202 Y39.074 E4.35692
G1 X58.830 Y39.074 E6.37120
G1 X58.830 Y55.702 E8.38551
G1 X57.533 Y55.702 E8.54264
G1 E8.04264 F1500.000
G92 E0
G1 X58.116 Y43.071 F7800.000
G1 E0.50000 F1500.000
;TYPE:External perimeter
G1 F1200.000
G1 X58.116 Y54.988 E1.94359
G1 X42.916 Y54.988 E3.78484
G1 X42.916 Y39.788 E5.62613
G1 X58.116 Y39.788 E7.46738
G1 X58.116 Y42.951 E7.85053
G1 X58.914 Y43.128 F7800.000
G1 E7.35053 F1500.000
G92 E0
G1 X58.116 Y36.652 F7800.000
G1 E0.50000 F1500.000
;TYPE:Perimeter
G1 F1200.000
G1 X42.202 Y36.652 E2.42776
G1 X42.202 Y20.024 E4.44207
G1 X58.830 Y20.024 E6.45635
G1 X58.830 Y36.652 E8.47066
G1 X58.236 Y36.652 E8.54263
G1 E8.04263 F1500.000
G92 E0
G1 X43.827 Y20.738 F7800.000
G1 E0.50000 F1500.000
;TYPE:External perimeter
G1 F1200.000
G1 X58.116 Y20.738 E2.23089
G1 X58.116 Y35.938 E4.07217
G1 X42.916 Y35.938 E5.91342
G1 X42.916 Y20.738 E7.75470
G1 X43.707 Y20.738 E7.85052
G1 X43.843 Y19.938 F7800.000
G1 E7.35052 F1500.000
G92 E0
G1 X39.780 Y20.738 F7800.000
G1 E0.50000 F1500.000
;TYPE:Perimeter
G1 F1200.000
G1 X39.780 Y36.652 E2.42779
G1 X23.152 Y36.652 E4.44207
G1 X23.152 Y20.024 E6.45638
G1 X39.780 Y20.024 E8.47066
G1 X39.780 Y20.618 E8.54263
G1 E8.04263 F1500.000
G92 E0
G1 X29.423 Y20.738 F7800.000
G1 E0.50000 F1500.000
;TYPE:External perimeter
G1 F1200.000
G1 X39.066 Y20.738 E1.66806
G1 X39.066 Y35.938 E3.50934
G1 X23.866 Y35.938 E5.35059
G1 X23.866 Y20.738 E7.19187
G1 X29.303 Y20.738 E7.85053
G1 X29.517 Y19.944 F7800.000
G1 E7.35053 F1500.000
G92 E0
G1 X29.303 Y39.074 F7800.000
G1 E0.50000 F1500.000
;TYPE:Perimeter
G1 F1200.000
G1 X39.780 Y39.074 E1.76911
G1 X39.780 Y55.702 E3.78343
G1 X23.152 Y55.702 E5.79770
G1 X23.152 Y39.074 E7.81202
G1 X29.183 Y39.074 E8.54265
G1 E8.04265 F1500.000
G92 E0
G1 X39.066 Y46.747 F7800.000
G1 E0.50000 F1500.000
;TYPE:External perimeter
G1 F1200.000
G1 X39.066 Y54.988 E1.49832
G1 X23.866 Y54.988 E3.33957
G1 X23.866 Y39.788 E5.18086
G1 X39.066 Y39.788 E7.02211
G1 X39.066 Y46.627 E7.85054
G1 X39.857 Y46.861 F7800.000
G1 E7.35054 F1500.000
G92 E0
G1 X39.066 Y58.123 F7800.000
G1 E0.50000 F1500.000
;TYPE:Perimeter
G1 F1200.000
G1 X39.780 Y58.123 E0.58651
G1 X39.780 Y74.752 E2.60100
G1 X23.152 Y74.752 E4.61527
G1 X23.152 Y58.123 E6.62976
G1 X38.946 Y58.123 E8.54299
G1 E8.04299 F1500.000
G92 E0
G1 X32.823 Y58.837 F7800.000
G1 E0.50000 F1500.000
;TYPE:External perimeter
G1 F1200.000
G1 X39.066 Y58.837 E1.25623
G1 X39.066 Y74.038 E3.09769
G1 X23.866 Y74.038 E4.93894
G1 X23.866 Y58.837 E6.78039
G1 X32.703 Y58.837 E7.85088
G1 X32.964 Y58.049 F7800.000
G1 E7.35088 F1500.000
G92 E0
G1 X32.703 Y77.172 F7800.000
G1 E0.50000 F1500.000
;TYPE:Perimeter
G1 F1200.000
G1 X39.780 Y77.172 E1.35728
G1 X39.780 Y93.802 E3.37176
G1 X23.152 Y93.802 E5.38604
G1 X23.152 Y77.172 E7.40053
G1 X32.583 Y77.172 E8.54299
G1 X33.953 Y77.887 F7800.000
;TYPE:External perimeter
G1 F1200.000
G1 X39.066 Y77.887 E9.16232
G1 X39.066 Y93.088 E11.00378
G1 X23.866 Y93.088 E12.84503
G1 X23.866 Y77.887 E14.68649
G1 X33.833 Y77.887 E15.89386
G1 X34.108 Y77.102 F7800.000
G1 E15.39386 F1500.000
G92 E0
G1 X122.107 Y90.658 F7800.000
G1 E0.50000 F1500.000
;TYPE:Perimeter
G1 F1200.000
G1 X122.107 Y94.676 E0.98678
G1 X22.280 Y94.676 E13.07983
G1 X22.280 Y19.412 E22.19730
G1 X122.103 Y19.412 E34.28991
G1 X122.107 Y90.538 E42.90607
G1 X122.821 Y90.538 F7800.000
;TYPE:External perimeter
G1 F1200.000
G1 X122.821 Y95.390 E43.49390
G1 X21.566 Y95.390 E55.75998
G1 X21.566 Y18.698 E65.05048
G1 X122.817 Y18.698 E77.31611
G1 X122.821 Y90.418 E86.00424
G1 X122.288 Y91.134 F7800.000
G1 E85.50424 F1500.000
G92 E0
G1 X117.737 Y94.676 F7800.000
G1 E0.50000 F1500.000
;TYPE:Solid infill
;WIDTH:0.803772
G1 F1200.000
G1 X116.301 Y93.241 E0.74719
G1 X116.301 Y92.225 E0.87083
G1 X118.431 Y94.355 E1.23753
G1 X119.446 Y94.355 E1.36118
G1 X116.301 Y91.210 E1.90274
G1 X116.301 Y90.195 E2.02638
G1 X120.461 Y94.355 E2.74280
G1 X121.476 Y94.355 E2.86644
G1 X116.301 Y89.180 E3.75772
G1 X116.301 Y88.164 E3.88137
G1 X121.786 Y93.648 E4.82587
G1 X121.785 Y92.633 E4.94952
G1 X116.301 Y87.149 E5.89402
G1 X116.301 Y86.134 E6.01766
G1 X121.785 Y91.618 E6.96215
G1 X121.785 Y90.602 E7.08580
G1 X116.301 Y85.118 E8.03028
G1 X116.301 Y84.103 E8.15392
G1 X121.785 Y89.587 E9.09839
G1 X121.785 Y88.572 E9.22204
G1 X116.301 Y83.088 E10.16650
G1 X116.301 Y82.072 E10.29015
G1 X121.785 Y87.556 E11.23460
G1 X121.785 Y86.541 E11.35825
G1 X116.301 Y81.057 E12.30269
G1 X116.301 Y80.042 E12.42634
G1 X121.785 Y85.526 E13.37078
G1 X121.785 Y84.510 E13.49443
G1 X116.301 Y79.026 E14.43885
G1 X116.301 Y78.011 E14.56250
G1 X122.106 Y83.816 E15.56227
G1 E15.06227 F1500.000
G92 E0
G1 X116.337 Y94.239 F7800.000
G1 E0.50000 F1500.000
;TYPE:Gap fill
;WIDTH:0.245633
G1 F1200.000
G1 X98.995 Y94.239 E0.97005
G1 X98.446 Y94.676 F7800.000
;TYPE:Solid infill
;WIDTH:0.803772
G1 F1200.000
G1 X97.251 Y93.482 E1.17576
G1 X97.251 Y92.466 E1.29940
G1 X98.674 Y93.889 E1.54438
G1 X98.674 Y93.795 E1.55582
G1 X99.031 Y93.795 E1.59930
G1 X99.031 Y93.231 E1.66803
G1 X97.251 Y91.451 E1.97450
G1 X97.251 Y90.436 E2.09815
G1 X99.031 Y92.215 E2.40462
G1 X99.031 Y91.200 E2.52827
G1 X97.251 Y89.420 E2.83474
G1 X97.251 Y88.405 E2.95839
G1 X99.031 Y90.185 E3.26486
G1 X99.031 Y89.169 E3.38850
G1 X97.251 Y87.390 E3.69498
G1 X97.251 Y86.374 E3.81862
G1 X99.031 Y88.154 E4.12510
G1 X99.031 Y87.139 E4.24874
G1 X97.251 Y85.359 E4.55522
G1 X97.251 Y84.344 E4.67886
G1 X99.031 Y86.123 E4.98534
G1 X99.031 Y85.108 E5.10898
G1 X97.251 Y83.329 E5.41546
G1 X97.251 Y82.313 E5.53910
G1 X99.031 Y84.093 E5.84557
G1 X99.031 Y83.077 E5.96922
G1 X97.251 Y81.298 E6.27569
G1 X97.251 Y80.283 E6.39934
G1 X99.031 Y82.062 E6.70581
G1 X99.031 Y81.047 E6.82946
G1 X97.251 Y79.267 E7.13593
G1 X97.251 Y78.252 E7.25958
G1 X99.352 Y80.353 E7.62140
G1 E7.12140 F1500.000
G92 E0
G1 X101.250 Y77.174 F7800.000
G1 E0.50000 F1500.000
G1 F1200.000
G1 X97.251 Y73.175 E1.18867
